kora/status/symbolic/touch-disabled-symbolic.svg

<svg xmlns="http://www.w3.org/2000/svg" width="16" height="16" version="1.1">
 <path style="fill:#dfdfdf;opacity:0.35" d="M 8.0722656 0 A 6.996 6.9900418 0 0 0 5.0898438 0.65039062 L 5.6894531 1.25 L 6.6445312 2.2050781 A 4.997 4.9927443 0 0 1 10.527344 2.6855469 A 4.996 4.9917452 0 0 1 13 6.9941406 A 1 0.99914835 0 0 0 13.001953 7.0019531 A 1 0.99730355 0 0 0 13 7.0117188 L 13 8.0097656 A 1 0.99730355 0 0 0 15 8.0097656 L 15 7.0117188 A 1 0.99730355 0 0 0 15 7.0097656 A 1 0.99730355 0 0 0 15 7.0078125 A 1 0.99730355 0 0 0 15 7.0058594 A 1 0.99730355 0 0 0 15 7.0039062 A 1 0.99730355 0 0 0 15 7.0019531 A 1 0.99730355 0 0 0 15 7 A 1 0.99730355 0 0 0 15 6.9980469 A 1 0.99730355 0 0 0 15 6.9960938 A 1 0.99730355 0 0 0 15 6.9941406 A 7.006 7.0000333 0 0 0 11.539062 0.9609375 A 6.993 6.9870444 0 0 0 8.0722656 0 z M 2.5 0.5 L 1 2 L 2.25 3.25 A 1 0.96465179 0 0 0 2.0566406 3.4609375 A 7.004 6.7564211 0 0 0 1.0058594 6.8789062 A 1 0.99914835 0 0 0 1 6.9414062 L 1 12 A 1 0.99914835 0 0 0 3 12 L 3 7.0292969 C 3 6.1946435 3.2271948 5.3765763 3.6523438 4.6523438 L 4.3574219 5.3574219 C 4.1282623 5.8591159 4 6.4154466 4 7 A 1 1.0000271 0 0 0 4 7.0058594 A 1 0.99730355 0 0 0 4 7.0117188 L 4 8.0097656 A 1 0.99730355 0 0 0 6 8.0097656 L 6 7.0117188 A 1 0.99730355 0 0 0 6 7.0097656 A 1 0.99730355 0 0 0 6 7.0078125 A 1 0.99730355 0 0 0 6 7.0058594 A 1 0.99730355 0 0 0 6 7.0039062 A 1 0.99730355 0 0 0 6 7.0019531 L 7 8 L 7 11.998047 C 7 11.998047 6.9995313 12.591408 7.1445312 13.314453 C 7.2895312 14.038496 7.5569688 14.961298 8.2929688 15.695312 A 1 0.99730355 0 1 0 9.7070312 14.285156 C 9.4420314 14.021867 9.2104688 13.448367 9.1054688 12.925781 C 9.0004687 12.402196 9 11.998047 9 11.998047 L 9 10 L 10 11 L 10 11.998047 C 10 11.998047 10.0098 12.437852 10.175781 12.9375 A 4.56 4.5477042 0 0 0 11.292969 14.697266 A 1 0.99730355 0 0 0 13.009766 14.009766 L 13.5 14.5 L 15 13 L 13.355469 11.355469 L 9.4335938 7.4335938 L 8.7402344 6.7402344 L 8.5 6.5 L 7.5 5.5 L 3.9472656 1.9472656 L 2.5 0.5 z M 8 3 C 7.8226993 3 7.649925 3.0163422 7.4785156 3.0390625 L 9.2421875 4.8027344 L 10.242188 5.8027344 L 10.482422 6.0429688 L 11.175781 6.7363281 L 12 7.5605469 L 12 7.0117188 A 1 0.99730355 0 0 0 12 7.0097656 A 1 0.99730355 0 0 0 12 7.0078125 A 1 0.99730355 0 0 0 12 7.0058594 A 1 0.99730355 0 0 0 12 7.0039062 A 1 0.99730355 0 0 0 12 7.0019531 A 1 0.99730355 0 0 0 12 7 C 12 4.8029404 10.197 3 8 3 z M 4.984375 9.9902344 A 1 0.99730355 0 0 0 4 11 L 4 13.992188 A 1 0.99730355 0 0 0 6 13.992188 L 6 11 A 1 0.99730355 0 0 0 4.984375 9.9902344 z"/>
</svg>

<svg xmlns="http://www.w3.org/2000/svg" style="clip-rule:evenodd;fill-rule:evenodd;stroke-linejoin:round;stroke-miterlimit:2" version="1.1" viewBox="0 0 16 16">
 <defs>
  <style id="current-color-scheme" type="text/css">
   .ColorScheme-Text { color:#dfdfdf; } .ColorScheme-Highlight { color:#4285f4; } .ColorScheme-NeutralText { color:#ff9800; } .ColorScheme-PositiveText { color:#4caf50; } .ColorScheme-NegativeText { color:#f44336; }
  </style>
 </defs>
 <path style="fill-opacity:.35;;fill:currentColor;" class="ColorScheme-Text" d="m8.072 0c-1.03-5e-3 -2.048 0.217-2.982 0.65l1.555 1.555c1.305-0.374 2.708-0.2 3.882 0.481 1.53 0.894 2.473 2.537 2.473 4.308 1e-3 3e-3 1e-3 5e-3 2e-3 8e-3 -1e-3 3e-3 -1e-3 6e-3 -2e-3 0.01v0.998c0 0.547 0.451 0.997 1 0.997s1-0.45 1-0.997v-1.016c-2e-3 -2.479-1.321-4.779-3.461-6.033-1.052-0.617-2.247-0.948-3.467-0.961zm-5.572 0.5-1.5 1.5 1.25 1.25c-0.075 0.061-0.14 0.132-0.193 0.211-0.661 1.028-1.024 2.208-1.051 3.418-3e-3 0.021-5e-3 0.042-6e-3 0.062v5.059c0 0.548 0.451 0.999 1 0.999s1-0.451 1-0.999v-4.971c0-0.834 0.227-1.652 0.652-2.377l0.705 0.705c-0.229 0.502-0.357 1.058-0.357 1.643v1.01c0 0.547 0.451 0.997 1 0.997s1-0.45 1-0.997v-1.008l1 0.998v3.998s-0 0.593 0.145 1.316c0.145 0.724 0.412 1.647 1.148 2.381 0.188 0.195 0.448 0.304 0.719 0.304 0.548 0 1-0.45 1-0.997-0-0.27-0.11-0.529-0.305-0.717-0.265-0.263-0.497-0.837-0.602-1.359-0.105-0.524-0.105-0.928-0.105-0.928v-1.998l1 1v0.998s0.01 0.44 0.176 0.939c0.231 0.665 0.613 1.268 1.117 1.76 0.188 0.193 0.447 0.302 0.717 0.302 0.545 0 0.995-0.445 1-0.989l0.49 0.49 1.5-1.5-12.5-12.5zm5.5 2.5c-0.177 0-0.35 0.016-0.521 0.039l4.521 4.522v-0.561c0-2.197-1.803-4-4-4zm-3.016 6.99c-0.547 9e-3 -0.991 0.464-0.984 1.01v2.992c0 0.547 0.451 0.997 1 0.997s1-0.45 1-0.997v-2.992-0.013c0-0.547-0.451-0.997-1-0.997h-0.016z"/>
</svg>
